X:3
T: Vater und Tochter
N: Q0142B
O: Osteuropa, Tschechoslowakei, Unterzips
R: Ballade, Verfuehrung, Verwechslung
M: 2/4
L: 1/16
K: G
 | G2G2D2DD | E2E2D4 |
D2D2E2F2 | G4z4 |
G2G2D2DD | E2E2D4 |
D2D2E2F2 | G4z4 |
F2A2A2A2 | A2B2A4 |
B2G2G2E2 | D2E2D4 |
D2D2E2F2 | G2B2d4 |
B2D2B2A2 | G4z4 |
F2A2A2A2 | A2B2A4 |
B2G2G2E2 | D2E2D4 |
D2D2E2F2 | G2B2d4 |
B2D2B2A2 | G4z4

@@@ Tune index: 1606
